/* XPM */
static char *_9290ef571c94c3292ec3c02fcb394ffIC6rQ6xczJy0Y2zf[] = {
/* columns rows colors chars-per-pixel */
"32 32 177 2 ",
"   c #351324",
".  c #3E192A",
"X  c #421429",
"o  c #421D2D",
"O  c #431E32",
"+  c #5B2628",
"@  c #462131",
"#  c #4B2535",
"$  c #4C243B",
"%  c #4F2939",
"&  c #512637",
"*  c #5A243B",
"=  c #542C3D",
"-  c #592B3D",
";  c #58313F",
":  c #6E2F2D",
">  c #632535",
",  c #6A2736",
"<  c #783636",
"1  c #7B3638",
"2  c #5A752E",
"3  c #5A643A",
"4  c #5C7730",
"5  c #5E7932",
"6  c #617735",
"7  c #617C35",
"8  c #657D39",
"9  c #6A7F3D",
"0  c #787A3E",
"q  c #502542",
"w  c #562A45",
"e  c #5D2E41",
"r  c #592A4B",
"t  c #5C3242",
"y  c #662C44",
"u  c #623445",
"i  c #653947",
"p  c #653748",
"a  c #6D354B",
"s  c #663949",
"d  c #6B3C4C",
"f  c #72394F",
"g  c #7B3C4B",
"h  c #653055",
"j  c #6F3D56",
"k  c #6B355A",
"l  c #6E3B5B",
"z  c #723D55",
"x  c #723E5B",
"c  c #6C405C",
"v  c #7B4355",
"b  c #71435C",
"n  c #5F6640",
"m  c #626741",
"M  c #636943",
"N  c #667F41",
"B  c #697F40",
"V  c #6C6C51",
"C  c #784C68",
"Z  c #7D516E",
"A  c #873A37",
"S  c #843B3B",
"D  c #903B3A",
"F  c #8B4133",
"G  c #8D4038",
"H  c #9C4535",
"J  c #974B31",
"K  c #A44938",
"L  c #A54B39",
"P  c #B24E31",
"I  c #AB5736",
"U  c #A5543B",
"Y  c #A9543D",
"T  c #AB5B3D",
"R  c #B45533",
"E  c #BB5236",
"W  c #B65833",
"Q  c #BC5A36",
"!  c #B4553B",
"~  c #B65D3D",
"^  c #B95E39",
"/  c #856E3C",
"(  c #8B6E3B",
")  c #8D713E",
"_  c #BC6037",
"`  c #BB613D",
"'  c #C0512D",
"]  c #C35F33",
"[  c #CC5D35",
"{  c #C35B3A",
"}  c #CC6336",
"|  c #CA623B",
" . c #C66A3E",
".. c #CF693D",
"X. c #D36536",
"o. c #D66837",
"O. c #D86B37",
"+. c #D56739",
"@. c #D66B3B",
"#. c #DA6D39",
"$. c #DD723C",
"%. c #E1763D",
"&. c #E37A3F",
"*. c #8A3E44",
"=. c #8B4650",
"-. c #A25040",
";. c #B0585E",
":. c #9D6841",
">. c #BB6244",
",. c #A37345",
"<. c #AE7847",
"1. c #BC7148",
"2. c #BA615A",
"3. c #805367",
"4. c #94596D",
"5. c #865976",
"6. c #9A5973",
"7. c #B25969",
"8. c #996E7E",
"9. c #9E757C",
"0. c #AC696D",
"q. c #B66163",
"w. c #B76B78",
"e. c #C45C4F",
"r. c #CE6645",
"t. c #D16C41",
"y. c #C77D46",
"u. c #DA7341",
"i. c #DD7941",
"p. c #C2635A",
"a. c #D46C53",
"s. c #E27B41",
"d. c #C56D6B",
"f. c #CA716E",
"g. c #CA7371",
"h. c #66813A",
"j. c #6A8149",
"k. c #7A8040",
"l. c #71804C",
"z. c #788658",
"x. c #9D8142",
"c. c #848A5E",
"v. c #A08144",
"b. c #BE8A4D",
"n. c #918865",
"m. c #92906D",
"M. c #86867A",
"N. c #9C8973",
"B. c #9D987E",
"V. c #A69A7D",
"C. c #E68244",
"Z. c #E78849",
"A. c #C88571",
"S. c #9C6C8A",
"D. c #9E7B92",
"F. c #A37C84",
"G. c #A87982",
"H. c #A17D8B",
"J. c #A07C90",
"K. c #B47B9A",
"L. c #A8848A",
"P. c #B0878D",
"I. c #AD9C81",
"U. c #B39F87",
"Y. c #AF8695",
"T. c #B88D90",
"R. c #AF9A97",
"E. c #AF979D",
"W. c #BD9592",
"Q. c #B09D95",
"!. c #B99E90",
"~. c #B09A9B",
"^. c #AEA086",
"/. c #A58BA5",
"(. c #C48582",
"). c #C09591",
"_. c #CAA59B",
/* pixels */
"7 7 5 7 7 5 5 5 7 7 5 4 5 7 7 5 7 7 7 7 7 7 5 5 7 7 7 7 7 7 7 5 ",
"7 7 7 7 7 7 5 7 8 7 5 5 7 7 7 5 7 7 7 7 7 7 7 7 7 7 7 7 7 7 7 7 ",
"7 7 8 h.h.7 7 7 8 7 7 7 7 7 9 m.I.U.V.z.7 7 7 7 5 7 7 7 7 7 7 7 ",
"4 5 7 7 7 5 5 5 7 5 5 7 7 n._.W.F.9.P._.U.B 7 7 5 7 7 7 5 5 7 7 ",
"5 5 7 7 0 v.x.k.7 5 5 8 ^.).3.h r r h x P.!.9 7 5 5 7 7 5 5 7 7 ",
"7 7 8 <.C.C.C.Z.b.8 7 V.W.l q         $ k G.N.5 5 5 7 7 7 5 5 5 ",
"5 5 ,.s. .1 < J @.y.c._.l $ o o . . . . O k T.l.5 5 7 7 7 7 5 5 ",
"7 0 u.^ F v v 1 A W A.8.w @ @ o . . . . . c Y.B.5 5 7 7 7 7 5 5 ",
"5 :.@.> D g =.S D : @.4.# # @ o . o = # . = S.Q.5 7 5 7 7 5 7 2 ",
"4 ~ L S y G L S > 1 H -.% # @ o o t t t @ . 5.Q.5 5 5 7 7 7 7 2 ",
"7 | ~ T 1.T U Y Y U ! R O @ o . = t ; - % . 5.R.5 5 5 7 7 7 7 4 ",
"9 t.$.} } } } } } ] @.^ . . . # t s i t % . Z ~.7 7 5 8 7 7 7 5 ",
"9 t.#.$.%.&.s.$.#.O.@.>.. . o p d d d d t . Z ~.7 7 7 h.7 5 7 7 ",
"8 t.$.%.$. .J i.O.O.#.g.O . - d d d d s u O Z ~.7 7 7 7 5 2 5 5 ",
"6 t.$.%.$.+ X I #.O.#.f.O o d d d d s s t & C E.7 5 4 7 5 2 5 4 ",
"4 t.$.%._ * * < %.O.#.` . = d d s s s p e = C E.7 5 2 7 7 5 7 5 ",
"8 ..$.$.I * * > i.$.#._ o p d s s s p u - - C L.5 5 7 8 7 5 7 8 ",
"8 0.(.$.H a y , $.$.O.^ @ s s s p p u u - - x F.5 5 7 7 5 5 5 7 ",
"8 6.K.$.L f a , $.$.O.W & s p p u u u t - - z H.7 5 5 7 5 4 5 7 ",
"6 6.w.$.! z f 1 $.$.o.R = p u u u u u e - - z H.5 5 7 7 7 5 5 5 ",
"7 ;.d.$.} g z Y $.$.X.R = u u u u t e - - - x H.5 5 5 7 7 5 5 5 ",
"8 { O.#.X.L *...#.$.X.R = u u u t e e - - - z J.7 5 5 5 5 5 5 5 ",
"8 r.O.o.#.' +.X.$.#.X.! = u t e e - - - - - z D.7 5 5 5 5 5 5 5 ",
"6 { +.X.r.p.2.q.a.#.} 2.w e e e - - - - - - j D.7 7 7 7 7 7 5 5 ",
"8 Q +.[ e.7.q.7.a.#.O.p.$ e - - - - - - - - b D.N 7 7 5 5 7 5 7 ",
"8 E X.X.O.#.#.#.#.#.X.Q o - - - - - - - - - b /.j.5 2 4 7 8 7 5 ",
"8 E [ @.$.i.#.@.@.+.[ P . & - - - - - - - - b /.z.5 2 5 8 7 5 4 ",
"7 / ( ( ( ) ) ) ) ( ( / 3 3 n M M m m m m m V M.j.5 5 7 7 5 4 5 ",
"7 5 4 5 7 7 7 7 7 7 7 7 7 7 7 7 8 8 7 7 7 7 7 5 5 5 5 7 7 5 5 7 ",
"7 5 5 7 7 7 7 5 5 7 7 5 5 7 7 7 7 7 7 5 7 7 7 2 7 7 4 5 7 7 5 7 ",
"7 5 5 7 7 7 7 7 5 7 5 2 5 7 7 7 7 7 5 5 5 5 5 5 7 7 7 7 7 7 5 5 ",
"7 5 7 7 7 5 7 h.7 7 4 2 7 7 7 7 7 5 7 7 7 5 5 7 2 7 7 7 7 5 7 7 "
};
