/* XPM */
static char *_40d855e26174f4da0ec0ea5f05aae33fLytVDDc0H36Mmvd[] = {
/* columns rows colors chars-per-pixel */
"32 32 3 1 ",
"  c #2F2D32",
". c #3E3C42",
"X c #504F52",
/* pixels */
"................................",
"..... .. .        . ............",
"............. ..................",
"............. ..................",
"............. ..................",
"............. ..................",
"............. ..................",
"............. ..................",
"............. ..................",
".                       . . ....",
".... ................ ..........",
".... ...............X ..........",
".... ...............X ..........",
".... ...............X ..........",
".... ...............X ..........",
".... ................ ..........",
".... ..........XXXX.. ..........",
". .                    .. . ....",
"............. ..................",
"............. ..................",
"............. ..................",
"................................",
"............. ..................",
"................................",
"................................",
"................................",
"................................",
"................................",
"................................",
"................................",
".... ...........................",
"................................"
};
