/* XPM */
static char *_e70cceb38764330f202b1cfef8b9374eRgZddzCZOoJuhrh[] = {
/* columns rows colors chars-per-pixel */
"32 32 22 1 ",
"  c #0C1317",
". c #70162B",
"X c #57732F",
"o c #58722F",
"O c #58742F",
"+ c #597630",
"@ c #5D7732",
"# c #5B7831",
"$ c #5F7B33",
"% c #607A33",
"& c #607B34",
"* c #617C34",
"= c #667F37",
"- c #5A5875",
"; c #A15C52",
": c #678037",
"> c #678038",
", c #698239",
"< c #FE8270",
"1 c #42428F",
"2 c #8D768A",
"3 c #CDD1EC",
/* pixels */
"****$*+&*$$+*:*&&$=$$&$&$$&$**$$",
"*$$&$=**=**$&*-@*&*&*$$$*&$$*$*$",
"**=,****=&&$*3-2&+&***&&$$*&&$&&",
"+@&=*$*@$*&2>.222@$$$*=*$$&%*&&=",
"$%%*&@&$$*$23.3222&&&*=$#&&$$@*$",
"$&=*$$@*$$*&2..2222;;$$&$&&$%$*&",
"%&$%%&+&&$1*2222 22;;$$$+$=$&$&@",
"&$$==***&**1%222 2<;$=*=$@&&=$&@",
"%@@&=$&=$&11122222<<<***&$$&=&$+",
"+@$%&$$$&$$=112222<<<%&$$$*=*&$+",
"**&%%$=&&@@&&*2222<<&=&@$$+*$*=@",
"=&$$$&,&<&$$*2222222=*$@$&&=$=*$",
"=%$$%$:*&<$@222222222&@&=*==&*$&",
"*$$**&*&<<222222222222$$*&$=$+@$",
"+$*==$&&$&22$2222222222$$*+@$+@$",
"@$%&$&=*&:&+$2222222222+*$@*&*&@",
"&&$$+&=&**$11*2222222222%$*=**$=",
"&@@**&*#*$@*112222222222@$$**+$=",
"$+*&*=**=&$1112222222222&*$$$+$&",
"$$=**=$&*&$&***222222222%**&&%$@",
"&&&=&$$&*@$$$22222222222&+&**$$$",
"***&&&$$*<$&22222222222**+%$$&$%",
"&*$+&=&@+*<22222222222=*%&$@**&@",
"$=&$&*=$&<<22=222222,=*&&*$&*&$$",
"$***$*&**$=*+**<<<&$$$&*$&$$$&&$",
"&**&$*%&*$$$+$<<<$$$*=$*$*++***%",
"**&$**&*$X+$$$<**$$$$@$*&$o&>*+&",
"&$O$*&&==$&*=<&&=&&$&$&%*$@&*$@%",
"$&&&=:*&*=*$*<$*===$&=$$$+$&*%*&",
"$$+$&=*$$=*&&<$%*=&$&=@@=$$$=&**",
":$$*&$$=$*@+$*<<$*$$*$&$&&&*&&$*",
"*$$=&&$=$$$+$=*$&*&*&@=*@%=*$*$*"
};
