/* XPM */
static const char *small[] = {
/* columns rows colors chars-per-pixel */
"32 32 89 1 ",
"  c #57732F",
". c #58722F",
"X c #58742F",
"o c #587530",
"O c #597530",
"+ c #5A7430",
"@ c #5A7530",
"# c #597630",
"$ c #597730",
"% c #5A7630",
"& c #5A7631",
"* c #5B7631",
"= c #5A7731",
"- c #5B7731",
"; c #5C7531",
": c #5C7631",
"> c #5C7731",
", c #5C7632",
"< c #5C7732",
"1 c #5D7732",
"2 c #5E7732",
"3 c #5F7732",
"4 c #5B7831",
"5 c #5C7831",
"6 c #5C7832",
"7 c #5D7832",
"8 c #5C7932",
"9 c #5D7932",
"0 c #5E7832",
"q c #5E7932",
"w c #5E7833",
"e c #5F7833",
"r c #5E7933",
"t c #5F7933",
"y c #5D7A32",
"u c #5E7A32",
"i c #5E7A33",
"p c #5F7A33",
"a c #5E7B33",
"s c #5F7B33",
"d c #5F7B34",
"f c #607833",
"g c #607933",
"h c #607A33",
"j c #607B33",
"k c #607934",
"l c #607A34",
"z c #617A34",
"x c #607B34",
"c c #617B34",
"v c #627A34",
"b c #627B34",
"n c #627A35",
"m c #637A35",
"M c #627B35",
"N c #637B35",
"B c #607C34",
"V c #617C34",
"C c #617C35",
"Z c #617D35",
"A c #627C34",
"S c #627C35",
"D c #637C35",
"F c #627D35",
"G c #637D35",
"H c #627E35",
"J c #637E35",
"K c #637D36",
"L c #637E36",
"P c #647C36",
"I c #657C36",
"U c #647D36",
"Y c #657D36",
"T c #647E36",
"R c #657E36",
"E c #647F36",
"W c #657F36",
"Q c #657E37",
"! c #657F37",
"~ c #667E37",
"^ c #667F37",
"/ c #658037",
"( c #668037",
") c #678037",
"_ c #678038",
"` c #688038",
"' c #688138",
"] c #698138",
"[ c #698239",
/* pixels */
"VVVVsV#xVss#V)Vxxs^ssxsxssxsVVss",
"Vssxs^VV^VVsxVs1VxVxVsssVxssVsVs",
"VV^[VVVV^xxsVsVsx#xVVVxxssVxxsxx",
"#1x^VsV1sVxx_Vx111sssV^VssxhVxx^",
"shhVx1xssVss_Vss1VxxxV^s4xxss1Vs",
"sx^Vss1VssVxVss^V^ssxssxsxxshsVx",
"hxshhx#xxsVVVxxsss1xssss#s^sxsx1",
"xss^^VVVxVVVh^VssssVs^V^s1xx^sx1",
"h11x^sx^sxsssx^^xxVVxVVVxssx^xs#",
"#1shxsssxss^VVxsx1VsshxsssV^Vxs#",
"VVxhhs^xx11xxV^VVsssx^x1ss#VsV^1",
"^xsssx[xsxssVVx^VVxx^Vs1sxx^s^Vs",
"^hsshs)VxVs1sssVxs#sVx1x^V^^xVsx",
"VssVVxVxxsh^^Vss#s#x##ssVxs^s#1s",
"#sV^^sxxsxVVs^xsVsxVs1xssV#1s#1s",
"1shxsx^Vx)x#s[xssxVxshs#Vs1VxVx1",
"xxss#x^xVVsxxVsss1^V4sVxhsV^VVs^",
"x11VVxV4Vs1VVVxxVssV^xxx1ssVV#s^",
"s#VxV^VV^xsVVxxV^VsVV^VVxVsss#sx",
"ss^VV^sxVxsxVVVsx^sxVVxshVVxxhs1",
"xxx^xssxV1sssVx1xVhsxxssx#xVVsss",
"VVVxxxssVVsxssxsssssV)xVV#hssxsh",
"xVs#x^x1#Vxx1xsxxVVV[^^Vhxs1VVx1",
"s^xsxV^sxVVss^Vx^x#V[^VxxVsxVxss",
"sVVVsVxVVs^V#VVxxVxsssxVsxsssxxs",
"xVVxsVhxVsss#ss^VsssV^sVsV##VVVh",
"VVxsVVxVs #ssssVVssss1sVxs.x_V#x",
"xsXsVxx^^sxV^Vxx^xxsxsxhVs1xVs1h",
"sxxx^)VxV^VsVVsV^^^sx^sss#sxVhVx",
"ss#sx^Vss^VxxsshV^xsx^11^sss^xVV",
")ssVxss^sV1#sVx^sVssVsxsxxxVxxsV",
"Vss^xxs^sss#s^VsxVxVx1^V1h^VsVsV"
};
