/* XPM */
static char *e4663175917040db83699aecc5e3c536LG38QSe8QG3EIGx1[] = {
/* columns rows colors chars-per-pixel */
"32 32 9 1 ",
"  c None",
". c #0C1317",
"X c #70162B",
"o c #5A5875",
"O c #A15C52",
"+ c #FE8270",
"@ c #42428F",
"# c #8D768A",
"$ c #CDD1EC",
/* pixels */
"                                ",
"                                ",
"                                ",
"                                ",
"                                ",
"                                ",
"                                ",
"                                ",
"                #####           ",
"              ########          ",
"             ##########         ",
"     OO ++  ###########         ",
"     OOO+++#############        ",
"     ##++++#############        ",
"    ####################+       ",
"   ###..################++      ",
"  ######################++    + ",
" oo#$X############# #### ++   + ",
"  $XXX###@ ##### @@ ###    +++  ",
"    $## @@  ##  @@@  ###        ",
"   ##  @@    ## @ @   ##        ",
"      @ @    ##       ++        ",
"            ++       + +        ",
"           + +                  ",
"                                ",
"                                ",
"                                ",
"                                ",
"                                ",
"                                ",
"                                ",
"                                "
};
