/* XPM */
static const char *small_cheese[] = {
/* columns rows colors chars-per-pixel */
"32 27 132 2 ",
"   c #040500",
".  c #080800",
"X  c #160F00",
"o  c #0F1000",
"O  c #131300",
"+  c #1B1C00",
"@  c #241A01",
"#  c #242400",
"$  c #292400",
"%  c #272900",
"&  c #2A2C00",
"*  c #372501",
"=  c #382801",
"-  c #333300",
";  c #393B00",
":  c #432F01",
">  c #463201",
",  c #483501",
"<  c #433D00",
"1  c #4B3B01",
"2  c #4C4F00",
"3  c #5E4302",
"4  c #5B4901",
"5  c #535500",
"6  c #5C5201",
"7  c #575A00",
"8  c #5B5D00",
"9  c #614502",
"0  c #694A02",
"q  c #645C01",
"w  c #6B5E01",
"e  c #745502",
"r  c #7A5602",
"t  c #755A02",
"y  c #7C5802",
"u  c #5D6000",
"i  c #626400",
"p  c #656900",
"a  c #6A6C00",
"s  c #7C6C01",
"d  c #6F7000",
"f  c #717300",
"g  c #7C7201",
"h  c #757900",
"j  c #7A7D00",
"k  c #815F02",
"l  c #886003",
"z  c #856D02",
"x  c #946903",
"c  c #9D6F03",
"v  c #847501",
"b  c #867C01",
"n  c #9C7203",
"m  c #A37203",
"M  c #A67903",
"N  c #AA7903",
"B  c #B27D04",
"V  c #7F8200",
"C  c #8A8501",
"Z  c #858900",
"A  c #8A8C00",
"S  c #938D01",
"D  c #8C9100",
"F  c #979600",
"G  c #959900",
"H  c #9B9C00",
"J  c #BB8304",
"K  c #9AA000",
"L  c #A2A500",
"P  c #A5AB00",
"I  c #AEB400",
"U  c #B6BC00",
"Y  c #C58B04",
"T  c #CA8F04",
"R  c #CD9204",
"E  c #D49504",
"W  c #DB9B04",
"Q  c #E4A105",
"!  c #F4AB05",
"~  c #F9AF05",
"^  c #FEB605",
"/  c #FFB805",
"(  c #BCC200",
")  c #C1C600",
"_  c #C4CA00",
"`  c #C9CF00",
"'  c #CDD400",
"]  c #D0D700",
"[  c #D5DC00",
"{  c #D9DE00",
"}  c #DCE300",
"|  c #E0E700",
" . c #E6EF00",
".. c #E6EE00",
"X. c #E6ED00",
"o. c #E3EA00",
"O. c #E8ED00",
"+. c #E8EF00",
"@. c #EAEF00",
"#. c #E9F100",
"$. c #ECF300",
"%. c #ECF400",
"&. c #ECF500",
"*. c #EDF500",
"=. c #EEF400",
"-. c #EFF400",
";. c #EFF600",
":. c #EFF700",
">. c #F0F500",
",. c #F0F800",
"<. c #F2F800",
"1. c #F2F900",
"2. c #F2FA00",
"3. c #F3FB00",
"4. c #F5FC00",
"5. c #F7FC00",
"6. c #F6FD00",
"7. c #F7FD00",
"8. c #F6FE00",
"9. c #F6FF00",
"0. c #F7FF00",
"q. c #F7FE00",
"w. c #F8FE00",
"e. c #F8FF00",
"r. c #F9FF00",
"t. c #FAFF00",
"y. c #FBFF00",
"u. c #FCFF00",
"i. c #FDFF00",
"p. c #FBFF00",
"a. c None",
"s. c black",
/* pixels */
"a.a.a.a.a.a.a.a.a.a.a.a.a.a.a.a.a.a.a.a.a.a.a.a.a.a.a.a.a.a.a.a.",
"a.a.a.a.a.a.a.a.a.a.a.a.a.a.a.a.a.a.a.a.a.a.a.a.a.a.a.a.a.a.a.a.",
"a.a.a.a.a.a.a.a.a.a.a.a.a.8 G G G G G A & O O a.a.a.a.a.a.a.a.a.",
"a.a.a.a.a.a.a.a.a.a.a.a.u ] u.y.y.y.u.3._ ( U 7 & & a.a.a.a.a.a.",
"a.a.a.a.a.a.a.a.a.a.a.# L 6.6.6.6.6.6.6.y.y.y.| } } D O a.a.a.a.",
"a.a.a.a.a.a.a.a.a.a.a.a.2 *.y.6.6.6.6.y.y.6.6.y.} D Z p O a.a.a.",
"a.a.a.a.a.a.a.a.a.u 8 & K o.2.y.6.y.y.*.+.U a a h G L _ & a.a.a.",
"a.a.a.a.a.a.a.a.u [ { H q 6 L 2.2.' ` h 8 Z ( ( ' y...U # a.a.a.",
"a.a.a.a.a.a.a.u [ y.' v E Q n F H i p ( } #.y.y.y.{ g $   a.a.a.",
"a.a.a.a.a.a.i [ 6.6.f J / / ! 1 Z *.2.6.y.y.6.6.y.G l > a.a.a.a.",
"a.a.a.a.a.8 _ [ h p - J / / ! 4 [ y.6.6.6.6.6.6.y.[ g $   a.a.a.",
"a.a.a.a.- j 8 p U _ d N / / W w } y.y.y.6.6.6.6.6.y.| I # a.a.a.",
"a.a.a.a.5 H | o.6.y.+.C n N z _ 6.y.` I *.y.6.6.y.[ P G + a.a.a.",
"a.a.a.& [ y.y.y.6.6.y...D V _ y.y._ s k F 2.6.y.[ v y @ a.a.a.a.",
"a.a.a.# _ o.*.6.y.y.6.6.y.y.y.6.y.G x E q *.y.| s T c a.a.a.a.a.",
"a.a.a.. - < L u.*.} y.6.6.6.6.6.y...C q ` 6.y.[ 4 ~ 0 a.a.a.a.a.",
"a.a.a.a.: m b { H v ] y.6.y.y.y.y.y.*...6.6.y.| g Y m a.a.a.a.a.",
"a.a.a.a.= B e P S s ` y.y.) j j G :.y.y.6.6.6.y.{ b r @ a.a.a.a.",
"a.a.a.a.: Y t ( +.' y.y.) z B B n F *.y.6.y.y.y.6._ D & a.a.a.a.",
"a.a.a.a.* r A >.y.y.6.) z Q Q T R M F *.u.| ( ) L ; - a.a.a.a.a.",
"a.a.a.o 5 i U y.6.6.*.q E W 3 X > x , h H f O O a.a.a.a.a.a.a.a.",
"a.a.a.& [ y.6.6.6.6.*.q J 9 a.a.a.a.a.a.a.a.a.a.a.a.a.a.a.a.a.a.",
"a.a.a.& } u.y.y.y.y.6.L 1 a.a.a.a.a.a.a.a.a.a.a.a.a.a.a.a.a.a.a.",
"a.a.a.# P ( ( ( ( ( U 5   a.a.a.a.a.a.a.a.a.a.a.a.a.a.a.a.a.a.a.",
"a.a.a.a.O O O O O O O a.a.a.a.a.a.a.a.a.a.a.a.a.a.a.a.a.a.a.a.a.",
"a.a.a.a.a.a.a.a.a.a.a.a.a.a.a.a.a.a.a.a.a.a.a.a.a.a.a.a.a.a.a.a.",
"a.a.a.a.a.a.a.a.a.a.a.a.a.a.a.a.a.a.a.a.a.a.a.a.a.a.a.a.a.a.a.a."
};
