/* XPM */
static char *_8b3b7b914b6462bf1b1c0e1581417a6Gs8NrD8tGR7MbdZt[] = {
/* columns rows colors chars-per-pixel */
"32 32 113 2 ",
"   c #627D36",
".  c #607B34",
"X  c #5F7A33",
"o  c #617C35",
"O  c #5E7932",
"+  c #5C7730",
"@  c #637E37",
"#  c #647F38",
"$  c #5D7831",
"%  c #66813A",
"&  c #658039",
"*  c #671B27",
"=  c #6D1E28",
"-  c #72272E",
";  c #73282F",
":  c #6B1C28",
">  c #781C28",
",  c #AA4340",
"<  c #D7946E",
"1  c #DA9971",
"2  c #8D4541",
"3  c #7C1E29",
"4  c #B94135",
"5  c #F18341",
"6  c #F48641",
"7  c #F48945",
"8  c #F1AA75",
"9  c #944E46",
"0  c #B83C2E",
"q  c #F17831",
"w  c #EC9156",
"e  c #A84A2F",
"r  c #993925",
"t  c #A94C31",
"y  c #F37E35",
"u  c #F1A56E",
"i  c #5B762F",
"p  c #E77131",
"a  c #B5694F",
"s  c #A74930",
"d  c #A64227",
"f  c #B56950",
"g  c #E87534",
"h  c #59742D",
"j  c #DB6429",
"k  c #7F2924",
"l  c #DC652A",
"z  c #F5762A",
"x  c #D5622A",
"c  c #7C2624",
"v  c #DD6A2E",
"b  c #802A25",
"n  c #F3752A",
"m  c #68833C",
"M  c #EEA36D",
"N  c #944D46",
"B  c #5A752E",
"V  c #A34F3A",
"C  c #58732C",
"Z  c #E87232",
"A  c #BB7053",
"S  c #A24630",
"D  c #9E3D27",
"F  c #A24832",
"G  c #BB7155",
"H  c #E37031",
"J  c #802821",
"K  c #621523",
"L  c #ED8F52",
"P  c #B05030",
"I  c #A34026",
"U  c #EF9053",
"Y  c #F17C37",
"T  c #B87D72",
"R  c #7B3B47",
"E  c #F1752E",
"W  c #F08441",
"Q  c #CD602E",
"!  c #C55729",
"~  c #D4A79A",
"^  c #874E58",
"/  c #ED7735",
"(  c #D18962",
")  c #903D33",
"_  c #832C26",
"`  c #934135",
"'  c #D48B64",
"]  c #842E27",
"[  c #86312A",
"{  c #EC702A",
"}  c #EA6F2A",
"|  c #D15F2A",
" . c #8F392D",
".. c #E19564",
"X. c #F2A770",
"o. c #A7492F",
"O. c #E97835",
"+. c #9A3B26",
"@. c #AC4F32",
"#. c #EF9559",
"$. c #F58037",
"%. c #B33730",
"&. c #DB5D2D",
"*. c #DD5F2D",
"=. c #DD6230",
"-. c #DB825D",
";. c #9A272F",
":. c #9C282F",
">. c #9B282F",
",. c #9B2930",
"<. c #771E29",
"1. c #681B27",
"2. c #6B1C27",
/* pixels */
"  . X . . X X X o . O + X @   O o o o o o . X X . . X . . . . X ",
". . o     . X . #   X O .   . $ o o o o o . . . . . . . . . . . ",
". o # % &   o   # o . o   o X $ O O X X . . o o X . o . . X .   ",
"+ O o   o O $ O   X X   @ o X X + $ O X . o     O . o . X X .   ",
"O X . o X $ $ X . * = - ; ; ; ; ; ; ; ; ; ; :   $ X . . X O . o ",
"o o     o X X . . > , < 1 1 1 1 1 1 1 1 1 1 2 X $ O . . . X X X ",
"O O O X X $ $ O . 3 4 5 6 6 6 6 6 6 6 6 7 8 9 X $ O . o o . X O ",
"o . o @ @   o o X 3 0 q w e r r r r t w y u 9 # O X .     o X $ ",
"O O i o @ O . # X 3 0 p a s d d d d s f g u 9 @ X . X @ o X . h ",
"+ $ + . o O o O . 3 0 j k l z z z z x c v u 9 O X X O     o o i ",
"X X X o X o & $ X 3 0 l b j z n n z x k v u 9 + O O $ o   o   + ",
"& o X o $ o m o o 3 0 l b j z n n z x k v u 9 $ . . X #   . @ X ",
"& O $   $ O % o @ 3 0 l b j z n n z x c v u 9 O   @ @ %   O   . ",
". $ O # o O @ . . 3 0 l b j z n n z x c v M N X o o . @ X B O O ",
"i . . @   . @ . O 3 0 j b j z z z z x c j V - X . O + . O B O + ",
"C   o X X . @ o   3 0 Z A S D D D D F G H J K $   O i o o O o O ",
"o O . X i X # .   3 0 q L P I I I I P U Y T R o $ O o #   X . # ",
"o + $ X X   @ $   3 0 E W Q ! ! ! ! Q W Y ~ ^ o X X . o X $ X @ ",
"X + O     @   O   3 0 / ( ) b _ _ b ` ' g ] * . . X X . O + $ o ",
"$ O @ &   . .   o 3 0 l [ x { } } { | [ j  .: X O X .   . O $ O ",
"O o @ @ o X X o . 3 0 l b j z z z z x c v ..2 X O O X o . X O O ",
"o   X $ o   O O X 3 0 l b j z n n z x c v X.9   X O O O O O X X ",
". @ X i o # . $ O 3 0 j k l z z z z x c v u N o . X O O O X X X ",
"$ &   $ . @ o . X 3 0 p a o.d d d d s f O.u N $ . . . o o o X $ ",
"o o . o o   o X   3 0 q w t r +.+.r @.#.$.u 9 O .   . $ X . X . ",
"  o o . . . . . . 3 %.&.*.*.*.*.*.*.*.*.=.-.`   . O B + @ # . O ",
"o o . X X X o   o > ;.:.:.:.:.>.:.:.:.:.:.,.<.  o O B O #   $ + ",
". O $ X . o   @ # 1.: : : : : : : : : : : 2.* . o X $ .   O + X ",
". $ + X @ @   o @ @   o o . . . # # o .   @ o $ X O $ .   X O @ ",
"  O $ . @   . X X @ o $ O o . .   @ o X . @ . B   . + X @   X o ",
"  X X o   . . o $ o O B O o . . . . X X X X O $ o   . .   o O X ",
"o X . o . O . & . o + B .   . o . X . o . O X # B o @   o X . @ "
};
