/* XPM */
static char *_2f56b8c579d4e429a4dbca9a3a44646jFPUG2cZgfkcE9ZC[] = {
/* columns rows colors chars-per-pixel */
"32 32 155 2 ",
"   c #4B192D",
".  c #4E1B32",
"X  c #5B223B",
"o  c #622324",
"O  c #713027",
"+  c #6A2F37",
"@  c #662939",
"#  c #752E39",
"$  c #733136",
"%  c #793636",
"&  c #74323A",
"*  c #7C363D",
"=  c #79393D",
"-  c #5A752E",
";  c #5C7730",
":  c #5E7932",
">  c #617C35",
",  c #647F38",
"<  c #652D44",
"1  c #7F3945",
"2  c #70384D",
"3  c #733A51",
"4  c #753C5E",
"5  c #7B4256",
"6  c #7E495C",
"7  c #7B4363",
"8  c #7D4863",
"9  c #803C2F",
"0  c #853C35",
"q  c #8A3D38",
"w  c #9F462F",
"e  c #8E4136",
"r  c #89413B",
"t  c #914635",
"y  c #974B36",
"u  c #93433E",
"i  c #9E4B3B",
"p  c #A25035",
"a  c #A85837",
"s  c #AD593F",
"d  c #B55736",
"f  c #B5583B",
"g  c #B85D38",
"h  c #936C3A",
"j  c #BF6037",
"k  c #B5603C",
"l  c #C35632",
"z  c #C75F36",
"x  c #CB5D34",
"c  c #CC6236",
"v  c #C6653B",
"b  c #CB653A",
"n  c #C7683D",
"m  c #CB693D",
"M  c #D36536",
"N  c #D66837",
"B  c #D86A37",
"V  c #D46639",
"C  c #D66B3A",
"Z  c #DA6D39",
"A  c #D6753E",
"S  c #DC723B",
"D  c #E0773D",
"F  c #923E43",
"G  c #81404B",
"H  c #89454A",
"J  c #944747",
"K  c #974A4B",
"L  c #824156",
"P  c #8A4556",
"I  c #A14F41",
"U  c #BE5845",
"Y  c #BF5E4D",
"T  c #B35B56",
"R  c #8E6D43",
"E  c #814E6A",
"W  c #8C5065",
"Q  c #8C5C6F",
"!  c #9D5B6F",
"~  c #99497C",
"^  c #8D5D73",
"/  c #9B5D73",
"(  c #AE4F69",
")  c #A05C6F",
"_  c #A35F71",
"`  c #877462",
"'  c #9C707C",
"]  c #BC6760",
"[  c #A66579",
"{  c #A8667D",
"}  c #A2687D",
"|  c #C15F4F",
" . c #CC6441",
".. c #C76349",
"X. c #D56D44",
"o. c #CA7041",
"O. c #DC7441",
"+. c #DF7941",
"@. c #D37D48",
"#. c #C56351",
"$. c #CA6C57",
"%. c #C76D5A",
"&. c #CC6F59",
"*. c #CA705A",
"=. c #E07641",
"-. c #E07842",
";. c #C67F79",
":. c #658039",
">. c #68833C",
",. c #6C8147",
"<. c #768052",
"1. c #7A8857",
"2. c #7D8971",
"3. c #828B64",
"4. c #8C8B65",
"5. c #898F6C",
"6. c #918F6A",
"7. c #91906C",
"8. c #868073",
"9. c #8A8272",
"0. c #8B8D75",
"q. c #8E8A7B",
"w. c #8C9071",
"e. c #979072",
"r. c #A4997B",
"t. c #E18245",
"y. c #996A86",
"u. c #8D6295",
"i. c #A97689",
"p. c #A97A8D",
"a. c #A36A94",
"s. c #A17E90",
"d. c #AA7F93",
"f. c #9C7FAF",
"g. c #908982",
"h. c #94928E",
"j. c #939394",
"k. c #AD8486",
"l. c #B98B8B",
"z. c #AC9384",
"x. c #AC9D84",
"c. c #A28094",
"v. c #A58898",
"b. c #A88C99",
"n. c #B38A98",
"m. c #AB9396",
"M. c #AA929A",
"N. c #B39995",
"B. c #BB9C93",
"V. c #B89895",
"C. c #BE9D9F",
"Z. c #C19793",
"A. c #C29A98",
"S. c #C8A29D",
"D. c #CAA99C",
/* pixels */
"> > : > > : : : > > : ; : > > : > > > > > > : : > > > > > > > : ",
"> > > > > > : > , > : : > > > : > > > > > > > > > > > > > > > > ",
"> > , :.:.> > > , > > > > > : : : : > : > > > > : > > > > > > > ",
"; : > > > : : : > : : > > , 4.r.r.6., : > > > > : > > > : : > > ",
": : > > : : : : > : : > 4.D.Z.k.k.V.D.7.> > > > : : > > : : > > ",
"> > > > > : : > > : > x.Z.Q 4 L L 7 ^ A.e.: : : : : > > > : : : ",
": : : : : : : : > > r.B.7 J f v v g P E l.<.: : : : > > > > : : ",
"> > > > > > > > : 1.S.8 i d i & = k m K ^ z.> , : : > > > > : : ",
": : - > > : > , : x.' F w t % 5 5 e p C W C.,.> : > : > > : > - ",
"; : ; > > : > : > B.P z 9 # # K H * @ j ] n.3.: : : : > > > > - ",
": : : > : > :.: : N.T 0 + @ @ u q < = $  .d.5.; : : : > > > > ; ",
":.> : > : > >.> > N.%.b o.@.n n n n n n O.d.w.: > > : , > > > : ",
":.: : > : : :.> > N.*.N c z c c c c c c -.p.0.: > > > :.> : > > ",
"> : : , > : > > > N.&.Z Z N S t.+.D D Z =.p.0.: > > > > : - : : ",
"- > > > > > > > : N.&.Z B N A o O S D S =.p.0.: > : ; > : - : ; ",
"- > > : : > > > > N.&.B B Z a .   g S Z +.p.0.: > : - > > : > : ",
"> : > : - : , > > m.&.Z Z S 0 X X y S Z =.i.0.> : : > , > : > , ",
"> ; : : : > > : > m.&.B S S $ X < r S Z ;.} 9.> : : > > : : : > ",
": ; : > > > > : > m.$.N S S & < 2 u S C f.y.9.> > : : > : ; : > ",
": : > :.> > > > > m.#.N S S r 2 3 I S C u./ 9.: : : > > > : : : ",
": > > > > : : > > m.#.N S C s 3 6 f S C a./ 9.: : : : > > : : : ",
"> > : : > > : : : M.#.M S Z m G 1 c S Z V ! 9.> : : : : : : : : ",
"> > : - > , > : : M.| M Z S M m l Z B N S _ q.> > : : : : : : : ",
": :.> : > > > > : b.| x Z Z N M N Z M M N ) q.: > > > > > > : : ",
"> > > > > > > > > v.Y N Z X.~ } { ( x N M _ g.: > > > : : > : > ",
"> > > > > > > > > s...N Z Z N N N Z c B x [ h.> > : - ; > , > : ",
"> > > : : : > > > c.U z N C Z S S S S C x [ j.> > : - : , > : ; ",
"> : : : > > > > , 8.R h h h h h h h h h h ` 2.> > : : > > : ; : ",
"> : ; : > > > > > > > > > > > > , , > > > > > : : : : > > : : > ",
"> : : > > > > : : > > : : > > > > > > : > > > - > > ; : > > : > ",
"> : : > > > > > : > : - : > > > > > : : : : : : > > > > > > : : ",
"> : > > > : > :.> > ; - > > > > > : > > > : : > - > > > > : > > "
};
