/* XPM */
static char *dd1e7dcf3af04c40adff3b34b2ca49e9JNB0tc0aZ5fGy0qN[] = {
/* columns rows colors chars-per-pixel */
"32 32 22 1 ",
"  c #0C1317",
". c #70162B",
"X c #57732F",
"o c #58722F",
"O c #58742F",
"+ c #597630",
"@ c #5D7732",
"# c #5B7831",
"$ c #5F7B33",
"% c #607A33",
"& c #607B34",
"* c #617C34",
"= c #667F37",
"- c #5A5875",
"; c #A15C52",
": c #678037",
"> c #678038",
", c #698239",
"< c #FE8270",
"1 c #42428F",
"2 c #8D768A",
"3 c #CDD1EC",
/* pixels */
"****$*+&*$$+*:*&&$=$$&$&$$&$**$$",
"*$$&$=**=**$&*$@*&*&*$$$*&$$*$*$",
"**=,****=&&$*$*$&+&***&&$$*&&$&&",
"+@&=*$*@$*&&>*&@@@$$$*=*$$&%*&&=",
"$%%*&@&$$*$$>*$$@*&&&*=$#&&$$@*$",
"$&=*$$@*$$*&*$$=*=$$&$$&$&&$%$*&",
"%&$%%&+&&$***&&$$$@&$$$$+$=$&$&@",
"&$$==***&***%=*$$$$*$=*=$@&&=$&@",
"%@@&=$&=$&$22222&&**&***&$$&=&$+",
"+@$%&$$$&$22222222*$$%&$$$*=*&$+",
"**&%%$=&&2222222222$&=&@$$+*$*=@",
"=&$$$&,&$22222222222=*<<$;;=$=*$",
"=%$$%$:*2222222222222<<<;;;=&*$&",
"*$$**&*&2222222222222<<<<22=$+@$",
"+$*==$&<22222222222222222222$+@$",
"@$%&$&<<2222222222222222  222*&@",
"&<$$+&<<2222222222222222222222$=",
"&<@**<<#2222*2222222222222.32--=",
"$+<<<=**=222*11*22222=1222...3$&",
"$$=**=$&222&*111&=22**11%223&%$@",
"&&&=&$$&22$$$1&1&22$&&$11+&22$$$",
"***&&&$$<<$&$$&$$22$*:&1*1%$$&$%",
"&*$+&=&@<*<&@&$&&*<<,==*%&$@**&@",
"$=&$&*=$&**$$=*&=&<*<=*&&*$&*&$$",
"$***$*&**$=*+**&&*&$$$&*$&$$$&&$",
"&**&$*%&*$$$+$$=*$$$*=$*$*++***%",
"**&$**&*$X+$$$$**$$$$@$*&$o&>*+&",
"&$O$*&&==$&*=*&&=&&$&$&%*$@&*$@%",
"$&&&=:*&*=*$**$*===$&=$$$+$&*%*&",
"$$+$&=*$$=*&&$$%*=&$&=@@=$$$=&**",
":$$*&$$=$*@+$*&=$*$$*$&$&&&*&&$*",
"*$$=&&$=$$$+$=*$&*&*&@=*@%=*$*$*"
};
