/* XPM */
static char *_ad81ef0bebf4bc5afda9f5daef45facMzJF3YX8RbxY1Is6[] = {
/* columns rows colors chars-per-pixel */
"32 32 22 1 ",
"  c #0C1317",
". c #70162B",
"X c #57732F",
"o c #58722F",
"O c #58742F",
"+ c #597630",
"@ c #5D7732",
"# c #5B7831",
"$ c #5F7B33",
"% c #607A33",
"& c #607B34",
"* c #617C34",
"= c #667F37",
"- c #5A5875",
"; c #A15C52",
": c #678037",
"> c #678038",
", c #698239",
"< c #FE8270",
"1 c #42428F",
"2 c #8D768A",
"3 c #CDD1EC",
/* pixels */
"****$*+&*$$+*:*&&$=$$&$&$$&$**$$",
"*$$&$=**=**$&*$@<<*&*$$$*&$$*$*$",
"**=,****=&&$*$*$&+<***&&$$*&&$&&",
"+@&=*$*@$*&&>*&@@@<$$*=*$$&%*&&=",
"$%%*&@&$$*$$>*$$@*<&&*=$#&&$$@*$",
"$&=*$$@*$$*&*$$=*<$$&$$&$&&$%$*&",
"%&$%%&+&&$***&&<<<@&$$$$+$=$&$&@",
"&$$==***&***%=<<<$$*$=*=$@&&=$&@",
"%@@&=$&=$&$$222222*22<<*&$$&=&$+",
"+@$%&$$$&$22222222222<&$$$*=*&$+",
"**&%%$=&&22222222222&=<@$$+*$*=@",
"=&$$$&,&22222222222&=*$@$&&=$=*$",
"=%$$%$:*222222222$+$*&@&=*==&*$&",
"*$$**&*&2222222222111+$$*&$=$+@$",
"+$*==$&&222222222211$@&$$*+@$+@$",
"@$%&$&=*2222222222*11%$+*$@*&*&@",
"&&$$+&=&*2222222222*#$*&%$*=**$=",
"&@@**&*#*2222222222*22&&@$$**+$=",
"$+*&*=**=&222222222222<<&*$$$+$&",
"$$=**=$&*&$222222222**<$%**&&%$@",
"&&&=&$$&*@$$2222222$&&$<&+&**$$$",
"***&&&$$**$&<<2222$$*:&**+%$$&$%",
"&*$+&=&@+*&<<<222211,==*%&$@**&@",
"$=&$&*=$&**<<<22222111*&&*$&*&$$",
"$***$*&**$=*;<2 222$1$&*$&$$$&&$",
"&**&$*%&*$$;;22 2222*1$*$*++***%",
"**&$**&*$X+;;2222..2$@$*&$o&>*+&",
"&$O$*&&==$&*=*2223.32$&%*$@&*$@%",
"$&&&=:*&*=*$**$222.$2=$$$+$&*%*&",
"$$+$&=*$$=*&&$$%2-3$&=@@=$$$=&**",
":$$*&$$=$*@+$*&=$-$$*$&$&&&*&&$*",
"*$$=&&$=$$$+$=*$&*&*&@=*@%=*$*$*"
};
