/* XPM */
static char *_8525e75315a4da8bb5d5507b0945203pt3iSL6QBnUqfQea[] = {
/* columns rows colors chars-per-pixel */
"32 32 118 2 ",
"   c #627D36",
".  c #607B34",
"X  c #5F7A33",
"o  c #617C35",
"O  c #5E7932",
"+  c #5C7730",
"@  c #637E37",
"#  c #647F38",
"$  c #5D7831",
"%  c #66813A",
"&  c #658039",
"*  c #5B5D00",
"=  c #959900",
"-  c #8A8C00",
";  c #2A2C00",
":  c #131300",
">  c #5D6000",
",  c #D0D700",
"<  c #FCFF00",
"1  c #FBFF00",
"2  c #F3FB00",
"3  c #C4CA00",
"4  c #BCC200",
"5  c #B6BC00",
"6  c #575A00",
"7  c #242400",
"8  c #A2A500",
"9  c #F6FD00",
"0  c #E0E700",
"q  c #DCE300",
"w  c #8C9100",
"e  c #5B762F",
"r  c #4C4F00",
"t  c #EDF500",
"y  c #858900",
"u  c #656900",
"i  c #59742D",
"p  c #9AA000",
"a  c #E3EA00",
"s  c #F2FA00",
"d  c #E8EF00",
"f  c #6A6C00",
"g  c #757900",
"h  c #D5DC00",
"j  c #D9DE00",
"k  c #9B9C00",
"l  c #645C01",
"z  c #5C5201",
"x  c #CDD400",
"c  c #C9CF00",
"v  c #E6EE00",
"b  c #68833C",
"n  c #847501",
"m  c #D49504",
"M  c #E4A105",
"N  c #9C7203",
"B  c #979600",
"V  c #626400",
"C  c #E9F100",
"Z  c #7C7201",
"A  c #292400",
"S  c #040500",
"D  c #717300",
"F  c #BB8304",
"G  c #FFB805",
"H  c #F4AB05",
"J  c #4B3B01",
"K  c #886003",
"L  c #463201",
"P  c #333300",
"I  c #5B4901",
"U  c #5A752E",
"Y  c #7A7D00",
"T  c #6F7000",
"R  c #AA7903",
"E  c #DB9B04",
"W  c #6B5E01",
"Q  c #AEB400",
"!  c #58732C",
"~  c #535500",
"^  c #8A8501",
"/  c #856D02",
"(  c #A5AB00",
")  c #1B1C00",
"_  c #7F8200",
"`  c #7C6C01",
"'  c #815F02",
"]  c #7C5802",
"[  c #241A01",
"{  c #946903",
"}  c #CA8F04",
"|  c #9D6F03",
" . c #080800",
".. c #433D00",
"X. c #F9AF05",
"o. c #694A02",
"O. c #432F01",
"+. c #A37203",
"@. c #867C01",
"#. c #C58B04",
"$. c #382801",
"%. c #B27D04",
"&. c #745502",
"*. c #938D01",
"=. c #C1C600",
"-. c #EFF700",
";. c #7A5602",
":. c #755A02",
">. c #372501",
",. c #F0F500",
"<. c #CD9204",
"1. c #A67903",
"2. c #393B00",
"3. c #0F1000",
"4. c #5E4302",
"5. c #160F00",
"6. c #483501",
"7. c #614502",
/* pixels */
"  . X . . X X X o . O + X @   O o o o o o . X X . . X . . . . X ",
". . o     . X . #   X O .   . $ o o o o o . . . . . . . . . . . ",
". o # % &   o   # o . o   o X $ O O X X . . o o X . o . . X .   ",
"+ O o   o O $ O   X X   @ o X X + $ O X . o     O . o . X X .   ",
"O X . o X $ $ X . O O   @ o . . X X . . o o     $ X . . X O . o ",
"o o     o X X . . X . o   * = = = = = - ; : : X $ O . . . X X X ",
"O O O X X $ $ O . o   o > , < 1 1 1 < 2 3 4 5 6 ; ; . o o . X O ",
"o . o @ @   o o X     7 8 9 9 9 9 9 9 9 1 1 1 0 q q w :   o X $ ",
"O O e o @ O . # X . o X r t 1 9 9 9 9 1 1 9 9 1 q w y u : X . i ",
"+ $ + . o O o O . > * ; p a s 1 9 1 1 t d 5 f f g = 8 3 ; o o e ",
"X X X o X o & $ > h j k l z 8 s s x c g * y 4 4 x 1 v 5 7 o   + ",
"& o X o $ o b > h 1 x n m M N B k V u 4 q C 1 1 1 j Z A S . @ X ",
"& O $   $ O V h 9 9 D F G G H J y t s 9 1 1 9 9 1 = K L   O   . ",
". $ O # o * 3 h g u P F G G H I h 1 9 9 9 9 9 9 1 h Z A S U O O ",
"e . . @ P Y * u 5 3 T R G G E W q 1 1 1 9 9 9 9 9 1 0 Q 7 U O + ",
"!   o X ~ k 0 a 9 1 d ^ N R / 3 9 1 c Q t 1 9 9 1 h ( = ) O o O ",
"o O . ; h 1 1 1 9 9 1 v w _ 3 1 1 3 ` ' B s 9 1 h n ] [   X . # ",
"o + $ 7 3 a t 9 1 1 9 9 1 1 1 9 1 = { m l t 1 0 ` } | o X $ X @ ",
"X + O  .P ..8 < t q 1 9 9 9 9 9 1 v ^ l c 9 1 h I X.o.. O + $ o ",
"$ O @ & O.+.@.j k n , 1 9 1 1 1 1 1 t v 9 9 1 0 Z #.+.  . O $ O ",
"O o @ @ $.%.&.( *.` c 1 1 =.Y Y = -.1 1 9 9 9 1 j @.;.[ . X O O ",
"o   X $ O.#.:.4 d x 1 1 =./ %.%.N B t 1 9 1 1 1 9 3 w ; O O X X ",
". @ X e >.;.- ,.1 1 9 =./ M M } <.1.B t < 0 4 =.8 2.P O O X X X ",
"$ &   3.~ V 5 1 9 9 t l m E 4.5.L { 6.g k D : : . . . o o o X $ ",
"o o . ; h 1 9 9 9 9 t l F 7.@ X X o . O X   o O .   . $ X . X . ",
"  o o ; q < 1 1 1 1 9 8 J O   o o . X . . . .   . O U + @ # . O ",
"o o . 7 ( 4 4 4 4 4 5 ~ S O .     X O X X $ O   o O U O #   $ + ",
". O $ X : : : : : : :     . X   @ . X . . X X . o X $ .   O + X ",
". $ + X @ @   o @ @   o o . . . # # o .   @ o $ X O $ .   X O @ ",
"  O $ . @   . X X @ o $ O o . .   @ o X . @ . U   . + X @   X o ",
"  X X o   . . o $ o O U O o . . . . X X X X O $ o   . .   o O X ",
"o X . o . O . & . o + U .   . o . X . o . O X # U o @   o X . @ "
};
