/* XPM */
static const char *small_wall[] = {
/* columns rows colors chars-per-pixel */
"32 32 131 2 ",
"   c #454641",
".  c #464943",
"X  c #4A4B46",
"o  c #4D4E4B",
"O  c #4B5343",
"+  c #4E5B45",
"@  c #4E524B",
"#  c #505C45",
"$  c #52544D",
"%  c #545B4D",
"&  c #4F5451",
"*  c #545553",
"=  c #585753",
"-  c #565A54",
";  c #595B55",
":  c #565A59",
">  c #5B5D5A",
",  c #605F5C",
"<  c #56614E",
"1  c #59634E",
"2  c #5B694E",
"3  c #566154",
"4  c #5A6454",
"5  c #5D6C54",
"6  c #5D625D",
"7  c #5E695A",
"8  c #606C53",
"9  c #62645D",
"0  c #626A5D",
"q  c #696A5F",
"w  c #69755E",
"e  c #5C5D62",
"r  c #5E6261",
"t  c #626563",
"y  c #646A65",
"u  c #696B65",
"i  c #64676A",
"p  c #656C6A",
"a  c #6A6D6B",
"s  c #657563",
"d  c #6B7265",
"f  c #6C7F62",
"g  c #67716B",
"h  c #6B726C",
"j  c #6C7A6A",
"k  c #717A62",
"l  c #73756D",
"z  c #666B71",
"x  c #6A6E74",
"c  c #6B7373",
"v  c #6E7974",
"b  c #6F7579",
"n  c #727672",
"m  c #747A75",
"M  c #787975",
"N  c #787A75",
"B  c #70727B",
"V  c #70777B",
"C  c #71727F",
"Z  c #71767B",
"A  c #72787A",
"S  c #737B7A",
"D  c #777B79",
"F  c #737C79",
"G  c #727C7A",
"H  c #74787F",
"J  c #757C7D",
"K  c #777D7C",
"L  c #767D7D",
"P  c #757C7B",
"I  c #797E7B",
"U  c #708066",
"Y  c #74826D",
"T  c #71806E",
"R  c #768074",
"E  c #778475",
"W  c #7D8677",
"Q  c #7D817A",
"!  c #7C837A",
"~  c #78807C",
"^  c #7D817E",
"/  c #7F877D",
"(  c #7C827C",
")  c #7D8879",
"_  c #7E897B",
"`  c #80847E",
"'  c #858B7F",
"]  c #838C7D",
"[  c #747680",
"{  c #757A80",
"}  c #777E80",
"|  c #787C81",
" . c #797F83",
".. c #798181",
"X. c #7B8280",
"o. c #7B8380",
"O. c #7D8281",
"+. c #7F8580",
"@. c #7F8680",
"#. c #7F8582",
"$. c #7D8382",
"%. c #808183",
"&. c #818683",
"*. c #818784",
"=. c #818786",
"-. c #848685",
";. c #828682",
":. c #858B82",
">. c #838884",
",. c #848985",
"<. c #848986",
"1. c #848983",
"2. c #8B8C87",
"3. c #898D85",
"4. c #808688",
"5. c #838888",
"6. c #87888A",
"7. c #848C89",
"8. c #878B89",
"9. c #898D88",
"0. c #8B8E89",
"q. c #8C8E8A",
"w. c #8E8F8B",
"e. c #8B8E89",
"r. c #8D9087",
"t. c #8D9086",
"y. c #8D918A",
"u. c #8D908C",
"i. c #8B908A",
"p. c #92958A",
"a. c #90948C",
/* pixels */
"- 6 9 9 * @ - % % $ $ * > 9 ;   a n l u + q q 9 a - * t t u t * ",
"0.w.2.' a d Y U f 6 M w.6.%.h > ,.O.J c 3 / :.Q o.u d ) ,.0.>.t ",
"..H [ c > 0 j j j 6 a | C z t > v x c t : p c v p > 0 j b c p : ",
"p p x p = > u u p ; > t t t : o r r t > o : r t r @ : r e r r * ",
"n u $ = 9 a l u > 9 > u u : u u u 9 X % 9 9 9 @ ; > 6 t > > h h ",
"=...- l y.r.p.Q u ^ -.u.D a ~ J J G - g ..=.o.t E =.;.o.a p 6.5.",
"c x ; a S S c 6 - c B Z t 9 c b Z v = t G { g ; j b x c r r c c ",
"r r $ t p p 7 + % p p t ; < t t t r @ - 4 t 9 % 4 r e e = - r t ",
"  = 9 9 9 q 2 8 q l n q 0 j l d < % > > = $ @ 3 > ; ; * : > - * ",
"t ;.2.w.0.D 5 ] ' W :.h n o.L T 5 w ) >.! g 4 ] r.2.D t ^ ^ ;.;.",
"> c v H A t 3 m j g g 6 u c p y # 5 v | Z u 6 ~ #...g r S o.$.I ",
"@ r t u t 6 * t 0 0 t > 6 t r 6 O 3 p p t : = p x a r * u h d u ",
"0 u $ $ u t 9 9 ; l M l u $ u l l n u = ; ; , : : t t ; * O 1 2 ",
"_ o.u t D m D m u >.6.,.m 9 0.a.,.=.a a 2.r.r.l l 3.8.;.m 3 W ) ",
"j g > = t i p g u S J ~ g 6 L m V J 6 u J } J t a m V z t ; s s ",
"6 7 % . 3 3 t t > t r 6 > - t t i i - t c x a > r p i t > @ 7 4 ",
"  % = $ O X 9 t u 9 o > u u u = 6 M l M t > a u a a : u u u u 9 ",
"9 3.` ;.M - :.2.w.-.9 ;.~ c c 6 u L g c 6 h 8.o...c > L J ..I m ",
"6 c i c p = ~ c c c : p p p i > u c p c > r v c x r > c z x c p ",
"- 6 > 9 6 @ t t i t o * > ; * X @ - * > $ . * : : * * : = : : : ",
"m a 9 o ; > t a ; ; 9 9 9 . $ u h a > X a l d u * 0 0 9 t : > n ",
"D D h = D ~ A c 6 m ^ Q ` ; h 1.^ ;.c * ;.L m L u E E ( o.a n D ",
"c a t ; a x i r > n v c p % 7 v } J p @ p g c y < s g c c > p a ",
"6 > : $ : > e r * > t t 7 # + 4 p p ; . - t u 4 O + 3 : * @ : > ",
"* = 9 u u u > * t t 9 9 - w k l t   > q 9 > @ O % $ - o . - > > ",
"a m 2.` Q N t a y.2.D h t ;.^ =.I ; D ` ^ m 6 u ] / o.p u o.;.( ",
"r n O.Z x p > u j j g t > p c 4.L ; t x b p * t J H c r 6 c g y ",
": 6 u r > 6 = < 5 4 3 - o > > 6 : X * - 6 :   @ t p r : * 4 5 4 ",
"l l h $ > u u d 8 1 w l a : o u u u u X = ; $ $ . ; 9 t > @ 1 d ",
"1.O.H : ^ 0.2.] j d _ ,.D r > D D ~ m * n o.>.( ; D ~ ( ` d d 1.",
"c x p : n c v v t u v c z > = p m m g $ g v } c * p x x c 6 g m ",
"t t t * 6 u a p 6 6 p t r * @ t p u 9 o t t g t $ 6 p p 0 = > t "
};
