/* XPM */
static char *_67e6a458023489da3c36e729af064c61YXONsDU3fajHAmK[] = {
/* columns rows colors chars-per-pixel */
"32 32 23 1 ",
"  c #627D36",
". c #607B34",
"X c #5F7A33",
"o c #617C35",
"O c #5E7932",
"+ c #5C7730",
"@ c #637E37",
"# c #647F38",
"$ c #5D7831",
"% c #66813A",
"& c #658039",
"* c #5B762F",
"= c #8D768A",
"- c #59742D",
"; c #A15C52",
": c #FE8270",
"> c #5A752E",
", c #58732C",
"< c #0C1317",
"1 c #5A5875",
"2 c #CDD1EC",
"3 c #70162B",
"4 c #42428F",
/* pixels */
" .X..XXXo.O+X@ Oooooo.XX..X....X",
"..o  .X.# XO. .$ooooo...........",
".o#%& o #o.o oX$OOXX..ooX.o..X. ",
"+Oo oO$O XX @oXX+$OX.o  O.o.XX. ",
"OX.oX$$X.OO @o..XX..oo  $X..XO.o",
"oo  oXX..X.o .X.o...XXXX$O...XXX",
"OOOXX$$O.o o.o.X.XXXXXXX$O.oo.XO",
"o.o@@ ooX  ..  .XX..o @#OX.  oX$",
"OO*o@O.#X.oXX.@&=====.o@X.X@oX.-",
"+$+.oOoO...ooo========XOXXO  oo*",
"XXXoXo&$X$$o@==========+OO$o o +",
"&oXo$;;o::+X===========$..X# .@X",
"&O$ $;;;:::============= @@% O .",
".$O#o==::::=============oo.@X>OO",
"*..@====================:O+.O>O+",
", o===<<================::*ooOoO",
"oO======================::o# X:#",
"o11=23=============.====X::oX$:@",
"X+2333===4.=====@44.===..XX:::$o",
"$O@&2== 44..==.X444.o===OX. .O$O",
"Oo@==XX44.XXX==O4X4XX.==OOXo.XOO",
"o X$o 4O4XXOX==XXXX.  ::XOOOOOXX",
".@X*o#.$O..X::o.o.. &:#:.XOOOXXX",
"$& $.@o.X.o:.: o@.Xo&% $...oooX$",
"oo.oo oX o@.>X@XXo.OX oO. .$X.X.",
" oo......*$X$O oo.X.... .O>+@#.O",
"oo.XXXo o->..O.  XOXX$O oO>O# $+",
".O$X.o @#OO  .X @.X..XX.oX$. O+X",
".$+X@@ o@@ oo...##o. @o$XO$. XO@",
" O$.@ .XX@o$Oo.. @oX.@.> .+X@ Xo",
" XXo ..o$oO>Oo....XXXXO$o .. oOX",
"oX.o.O.&.o+>. .o.X.o.OX#>o@ oX.@"
};
