/* XPM */
static char *dedf4645b7a648d4cd70ef3357fa4d68GJOaoyCb7XrreusN[] = {
/* columns rows colors chars-per-pixel */
"32 32 46 1 ",
"  c #40453F",
". c #58732C",
"X c #5B762F",
"o c #5D613B",
"O c #5C7730",
"+ c #5F7A33",
"@ c #5F7A34",
"# c #62772C",
"$ c #677E2F",
"% c #6C7F29",
"& c #637932",
"* c #607B34",
"= c #627D36",
"- c #677F34",
"; c #647F38",
": c #262B44",
"> c #292E43",
", c #3A4466",
"< c #4D545A",
"1 c #595F5D",
"2 c #5D6678",
"3 c #A47636",
"4 c #7D822F",
"5 c #66813A",
"6 c #68833C",
"7 c #AFB60D",
"8 c #A6AC1F",
"9 c #8E932F",
"0 c #9EA433",
"q c #B9C037",
"w c #C1C600",
"e c #C3C902",
"r c #C4CA00",
"t c #C6CC0F",
"y c #D7DC03",
"u c #D3DA0A",
"i c #C2C814",
"p c #E0E700",
"a c #E3EA00",
"s c #EDF500",
"d c #838A45",
"f c #9FA548",
"g c #596887",
"h c #5A6988",
"j c #919B95",
"k c #8B9BB4",
/* pixels */
"=*+**+++=*+O+==+=====*++*******+",
"**===*+*;=++*=*+=====***********",
"*=;55===;=*===++++++**==+*=****=",
"O+===+++=++===++O+++*===+*=*++*=",
"++*=++++*++===**++**====++**++*=",
"=====++**+*==*+*=***++++++***+++",
"++++++++*===*=*+*+++++++++*==*++",
"=*======+==**==*++**===;++*===++",
"++X==+*;+*=++*=5**==**==+*+==+*X",
"O+O*=+=+***h==h**h++h*+++++====X",
"+++=+=5+h++:,=:,,:+h:=+h+++====O",
"5=+=+=6=:,O::,::::,::=h:**+;=*=+",
"5++=++k=::,::::1f9o>:,::=k=5=+=*",
"*++;=+,h::::=*$0pre%::::,k*=+X++",
"X**==*h,::=*=-7wwsy#++::k,O*+X+O",
".==++*h,k=*+*2ippa8&*++k,:X==+=+",
"=+*+X+hh,h+k=<ut3qd@k+kk,:=;=+*;",
"=O+++=hh,,hkh 4jg::k,h,,::*=+++=",
"+O+====hh,,,,hh,,hh,,,,::++*+O+=",
"++=5=**=h,,,,,::::,,,,::++*=*+++",
"+====++=*h,,,:hh,::::::++++=*+++",
"==++==+++++++:,::::*====++++++++",
"*=+X=;*++**++=::::*=55;=*+++++++",
"+5=+*==*+==**====*+=55=+***===++",
"==*====*===*X+=++=*++==+*=*++*+*",
"===******X++++===*+*+**=*+XO=;*+",
"==*+++===XX**+*==++++++==+X+;=+O",
"*+++*===;++==**==*+**++*=++*=+O+",
"*+O+=========***;;=*===++++*=++=",
"=++*==*++==++=**===+*=*X=*O+==+=",
"=++==**=+=+X+=****++++++==**==++",
"=+*=*+*5*=OX*=*=*+*=*++=X====+*="
};
