/* XPM */
static char *_2b4798955e14087b834d684d7dbdd97OrTeUYyW9txlD6Jd[] = {
/* columns rows colors chars-per-pixel */
"32 32 20 1 ",
"  c #0C1317",
". c #181425",
"X c #70162B",
"o c #58732C",
"O c #5B762F",
"+ c #5C7730",
"@ c #5F7A33",
"# c #607B34",
"$ c #627D36",
"% c #647F38",
"& c #262B44",
"* c #3A4466",
"= c #5A5875",
"- c #A15C52",
"; c #66813A",
": c #FE8270",
"> c #42428F",
", c #5A6988",
"< c #8D768A",
"1 c #CDD1EC",
/* pixels */
"$#@##@@@$#@+@$$@$$$$$#@@#######@",
"##$$$#@#%$@@#$#@$$$$$###########",
"#$%;;$$$%$#$$$@@@@@@##$$@#$####$",
"+@$$$@@@$@@$$$@@+@@@#$$$@#$#@@#$",
"@@#$@@@@#@@$$$##@@##$$$$@@##@@#$",
"$$$$$@@##@#$$,..,,,#@@@@@@###@@@",
"@@@@@@@@#$$$,,,,..**@@@@@@#$$#@@",
"$#$$$$$$@$$#,,..&&**$$$%@@#$$$@@",
"@@O$$@#%@#$@,*&&..**<#$$@#@$$@#O",
"+@+#$@$@###$**..&&*&<<@@@@@$$$$O",
"@@@$@$;@@@@$,*&&..*&<<<+@@@$$$$+",
";$@$@--$::+@**..&&*&<<<@##@%$#$@",
";@@$@---:::<**&&..&&<<<<$$$;$@$#",
"#@@%$<<::::<<**.&*&<<<<<$$#$@O@@",
"O##$<<<<<<<<<**&.*&<<<<<:@+#@O@+",
"o$$<<<  <<<<<,*.&&&<<<<<::O$$@$@",
"$@<<<<<<<<<<<,*&.&&<<<<<::$%$@:%",
"$==<1X<<<<<<<,*.&&.#<<<<@::$@@:$",
"@+1XXX<<<>#<<<&&.&>#<<<##@@:::@$",
"@@$;1<<$>>##<<&&..>#$<<<@@#$#@@@",
"@$$<<@@>>#@@@*,,*&.@@#<<@@@$#@@@",
"$$@@$$>@>@@@@&*&&&.#$$::@@@@@@@@",
"#$@O$%#@@##@::&&..#$;:%:#@@@@@@@",
"@;$@#$$#@$$:#:$$$#@$;;$@###$$$@@",
"$$#$$$$#$$$#O@$@@$#@@$$@#$#@@#@#",
"$$$######O@@@@$$$#@#@##$#@O+$%#@",
"$$#@@@$$$OO##@#$$@@@@@@$$@O@%$@+",
"#@@@#$$$%@@$$##$$#@##@@#$@@#$@+@",
"#@+@$$$$$$$$$###%%$#$$$@@@@#$@@$",
"$@@#$$#@@$$@@$##$$$@#$#O$#+@$$@$",
"$@@$$##$@$@O@$####@@@@@@$$##$$@@",
"$@#$#@#;#$+O#$#$#@#$#@@$O$$$$@#$"
};
