/* XPM */
static char *_83892ec8221499a9c0e2fe91f2b789fV3GB1D1AWedbCZLo[] = {
/* columns rows colors chars-per-pixel */
"32 32 20 1 ",
"  c #0C1317",
". c #70162B",
"X c #58732C",
"o c #5B762F",
"O c #5C7730",
"+ c #5F7A33",
"@ c #607B34",
"# c #627D36",
"$ c #647F38",
"% c #262B44",
"& c #3A4466",
"* c #5A5875",
"= c #A15C52",
"- c #66813A",
"; c #FE8270",
": c #42428F",
"> c #5A6988",
", c #8D768A",
"< c #8B9BB4",
"1 c #CDD1EC",
/* pixels */
"#@+@@+++#@+O+##+#####@++@@@@@@@+",
"@@###@+@$#++@#@+#####@@@@@@@@@@@",
"@#$--###$#@###++++++@@##+@#@@@@#",
"O+###+++#++###++O+++@###+@#@++@#",
"++@#++++@++###@@++@@####++@@++@#",
"#####++@@+@##@+@#@@@++++++@@@+++",
"++++++++@###@#@+@+++++++++@##@++",
"#@######+##@@##@++@@###$++@###++",
"++o##+@$+@#++@#-,,,,,@##+@+##+@o",
"O+O@#+#+@@@>##,,,,,,,,+++++####o",
"+++#+#-+>++%&,,,,,,,,,,>+++####O",
"-#+#+==#;;O%,,,,,,,,,,,%@@+$#@#+",
"-++#+===;;;,,,,,,,,,,,,,#<#-#+#@",
"@++$#,,;;;;,,,,,,,,,,,,,&<@#+o++",
"o@@#,,,,,,,,,,,,,,,,,,,,;&O@+o+O",
"X##,,,  ,,,,,,,,,,,,,,,,;;o##+#+",
"#+,,,,,,,,,,,,,,,,,,,,,,;;#$#+;$",
"#**,1.,,,,,,,,,,,,,<,,,,%;;#++;#",
"+O1...,,,:&,,,,,&::&,,,%%++;;;+#",
"++#-1,,#::&&,,%%:::&&,,,++@#@+++",
"+##,,++::>&&&,,>:%:%%%,,+++#@+++",
"##++##:+:++++,,%%%%@##;;++++++++",
"@#+o#$@++@@+;;%%%%@#-;$;@+++++++",
"+-#+@##@+##;@;###@+#--#+@@@###++",
"##@####@###@o+#++#@++##+@#@++@+@",
"###@@@@@@o++++###@+@+@@#@+oO#$@+",
"##@+++###oo@@+@##++++++##+o+$#+O",
"@+++@###$++##@@##@+@@++@#++@#+O+",
"@+O+#########@@@$$#@###++++@#++#",
"#++@##@++##++#@@###+@#@o#@O+##+#",
"#++##@@#+#+o+#@@@@++++++##@@##++",
"#+@#@+@-@#Oo@#@#@+@#@++#o####+@#"
};
